X:351
T: "Der Raecher"
N: Z1031
O: Europa, Mitteleuropa, Deutschland, Niederrhein
R: Romanze, Ballade, Tod
M: 6/8
L: 1/16
K: G
d2 | _B2A2G2A4B2 | c2A2_B2G4
F2 | G2_B2A2G2c2A2 | _B2A2G2A4
G2 | F4G2A2G2d2 | d3c_BAG4
=F2 | d3e=fed2c2_B2 | A4d2c2_B2
G2 | A2G2d2d3c_BA | G4z6

@@@ Tune index: 10109
